X: 33044
T: Pride Of Petravore, The
R: hornpipe
M: 4/4
K: Eminor
B,2|:E3F G3A|B>cBA GFE2|D3E F3G|A>BAG F2D2|
E3F G3A|B>cBA GFGA|B2Bc B>AG>F|1 E2E^D E2B,D:|2 E2E^D E2 B/c/d||
|:e2e2 e2e2|d>BG>A B2Bc|B>AFG A2AB|A>GE^D E2 B/c/d|
e2e2 e2g>e|d>BG>A B2GA|B>AB>c BAGF|1 E2E^D E2 B/c/d:|2 E2E^D E2B,D||

